symbols/web/playlist_add/materialsymbolsoutlined/playlist_add_wght200_40px.svg

<svg xmlns="http://www.w3.org/2000/svg" height="40" width="40"><path d="M5.833 25.708v-1.416H17.75v1.416Zm0-6.75v-1.416h18.709v1.416Zm0-6.708v-1.417h18.709v1.417ZM27.625 32.5v-6.792h-6.792v-1.416h6.792V17.5h1.417v6.792h6.791v1.416h-6.791V32.5Z"/></svg>

<svg xmlns="http://www.w3.org/2000/svg" height="40" width="40"><path d="M27.625 32.5V25.708H20.833V24.292H27.625V17.5H29.042V24.292H35.833V25.708H29.042V32.5ZM5.833 25.708V24.292H17.75V25.708ZM5.833 18.958V17.542H24.542V18.958ZM5.833 12.25V10.833H24.542V12.25Z"/></svg>
